X: 3394
T: Bernard's Well
R: reel
M: 4/4
K: Gmixolydian
c|B(dd)g eccd|BGGB AFFA|B(dd)g eccd|BGAB G/G/G (Gc)|
B(dd)g eccd|BGGB AFFA|B(dd)g egdg|BGAB G/G/G G||
c|BGdG BGdB|AFcF AFcF|BGdG BGdB|AFcA G/G/G (Gc)|
BGdG BGdB|AFcF AFcF|BGdG Bcdg|BGAB G/G/G G||

